alura/assets/api/cursos/perspectiva.svg

<svg xmlns="http://www.w3.org/2000/svg" viewBox="0 0 50 50"><path fill="#fcc34f" d="M39.7 23.2v2.1l-25.4 15-4-1.6-.1-8.5 23.3-12.5 6.2 3.1z"/><path fill="#fdcf72" d="M27.9 14.9l5.6 2.8-23.3 12.5.1-9.4 9.5-4.3 5.2-3z"/><path fill="none" d="M11.6 22.8v15.1L23.8 44V28.9zm25.3-2L25 14.9l-11.9 5.9 11.9 6zM26.3 44l12.1-6.1V22.8l-12.1 6.1z"/><path fill="#444" d="M40.8 20.3s0-.1 0 0zm7.9 21.5L41 37.9V20.7c0-.1 0-.2-.1-.3v-.1l-.3-.3h-.1c-.1-.1-.1-.1-.2-.1l-14-7V4c0-.7-.6-1.2-1.2-1.2s-1.3.5-1.3 1.2v8.7l-14 7c-.1 0-.1.1-.2.1h-.1l-.3.3v.1c0 .1-.1.2-.1.3v17.2l-7.7 3.9c-.6.3-.9 1.1-.6 1.7.2.4.7.7 1.1.7.2 0 .4 0 .6-.1l7.8-3.9 14.1 7.1h.1c.1.1.3.1.4.1s.3 0 .4-.1h.1L39.5 40l7.8 3.9c.2.1.4.1.6.1.5 0 .9-.3 1.1-.7.5-.5.3-1.2-.3-1.5zM25 14.9l11.9 6-11.9 6-11.9-6 11.9-6zM23.8 44l-12.2-6.1V22.8l12.2 6.1V44zm14.6-6.1L26.3 44V28.9l12.2-6.1v15.1z"/><path fill="#4a4a4a" d="M13.3 37.4l-.9-1.2.8-.6.9 1.2-.8.6zm1.6-1.2L14 35l.8-.6.9 1.2-.8.6zm1.6-1.1l-.9-1.2.8-.6.9 1.2-.8.6zm1.7-1.2l-.9-1.2.8-.6.9 1.2-.8.6zm1.6-1.1l-.8-1.2.8-.6.9 1.2-.9.6zm1.7-1.1l-.9-1.2.8-.6.9 1.2-.8.6zm15.3 5.4l-.8-.6.9-1.2.8.6-.9 1.2zM35.2 36l-.8-.6.9-1.2.8.6-.9 1.2zm-1.7-1.2l-.8-.6.9-1.2.8.6-.9 1.2zm-1.6-1.1l-.8-.6.9-1.2.8.6-.9 1.2zm-1.7-1.2l-.8-.5.9-1.2.8.6-.9 1.1zm-1.6-1.1l-.8-.6.9-1.2.8.6-.9 1.2zm-2.8-6.3h-1.5v-1h1.5v1zm0-2h-1.5v-1h1.5v1zm0-2h-1.5v-1h1.5v1zm0-2h-1.5v-1h1.5v1zm0-2h-1.5v-1h1.5v1z"/></svg>

<?xml version="1.0" encoding="utf-8"?>
<!-- Generator: Adobe Illustrator 22.1.0, SVG Export Plug-In . SVG Version: 6.00 Build 0)  -->
<svg version="1.1" id="Layer_1" xmlns="http://www.w3.org/2000/svg" xmlns:xlink="http://www.w3.org/1999/xlink" x="0px" y="0px"
	 viewBox="0 0 50 50" style="enable-background:new 0 0 50 50;" xml:space="preserve">
<style type="text/css">
	.st0{fill:#FCC34F;}
	.st1{fill:#FDCF72;}
	.st2{fill:none;}
	.st3{fill:#444444;}
	.st4{fill:#4A4A4A;}
</style>
<g>
	<polygon class="st0" points="39.7,23.2 39.7,25.3 14.3,40.3 10.3,38.7 10.2,30.2 33.5,17.7 39.7,20.8 	"/>
	<polygon class="st1" points="27.9,14.9 33.5,17.7 10.2,30.2 10.3,20.8 19.8,16.5 25,13.5 	"/>
	<g>
		<polygon class="st2" points="11.6,22.8 11.6,37.9 23.8,44 23.8,28.9 		"/>
		<polygon class="st2" points="36.9,20.8 25,14.9 13.1,20.8 25,26.8 		"/>
		<polygon class="st2" points="26.3,44 38.4,37.9 38.4,22.8 26.3,28.9 		"/>
		<path class="st3" d="M40.8,20.3C40.8,20.3,40.8,20.2,40.8,20.3C40.8,20.3,40.8,20.3,40.8,20.3C40.8,20.3,40.8,20.3,40.8,20.3z"/>
		<path class="st3" d="M48.7,41.8l-7.7-3.9V20.8c0,0,0,0,0,0c0,0,0-0.1,0-0.1c0-0.1,0-0.2-0.1-0.3c0,0,0-0.1,0-0.1
			c-0.1-0.1-0.2-0.2-0.3-0.3c0,0,0,0-0.1,0c-0.1-0.1-0.1-0.1-0.2-0.1l-14-7V4c0-0.7-0.6-1.2-1.2-1.2S23.8,3.3,23.8,4v8.7l-14,7
			c-0.1,0-0.1,0.1-0.2,0.1c0,0,0,0-0.1,0c-0.1,0.1-0.2,0.2-0.3,0.3c0,0,0,0,0,0c0,0,0,0,0,0.1c0,0.1-0.1,0.2-0.1,0.3
			c0,0,0,0.1,0,0.1c0,0,0,0,0,0v17.1l-7.7,3.9c-0.6,0.3-0.9,1.1-0.6,1.7c0.2,0.4,0.7,0.7,1.1,0.7c0.2,0,0.4,0,0.6-0.1l7.8-3.9
			l14.1,7.1c0,0,0,0,0,0c0,0,0,0,0.1,0c0.1,0.1,0.3,0.1,0.4,0.1s0.3,0,0.4-0.1c0,0,0,0,0.1,0c0,0,0,0,0,0l14.1-7.1l7.8,3.9
			c0.2,0.1,0.4,0.1,0.6,0.1c0.5,0,0.9-0.3,1.1-0.7C49.5,42.8,49.3,42.1,48.7,41.8z M25,14.9l11.9,6l-11.9,6l-11.9-6L25,14.9z
			 M23.8,44l-12.2-6.1V22.8l12.2,6.1V44z M38.4,37.9L26.3,44V28.9l12.2-6.1V37.9z"/>
	</g>
	<path class="st4" d="M13.3,37.4l-0.9-1.2l0.8-0.6l0.9,1.2L13.3,37.4z M14.9,36.2L14,35l0.8-0.6l0.9,1.2L14.9,36.2z M16.5,35.1
		l-0.9-1.2l0.8-0.6l0.9,1.2L16.5,35.1z M18.2,33.9l-0.9-1.2l0.8-0.6l0.9,1.2L18.2,33.9z M19.8,32.8L19,31.6l0.8-0.6l0.9,1.2
		L19.8,32.8z M21.5,31.7l-0.9-1.2l0.8-0.6l0.9,1.2L21.5,31.7z"/>
	<path class="st4" d="M36.8,37.1L36,36.5l0.9-1.2l0.8,0.6L36.8,37.1z M35.2,36l-0.8-0.6l0.9-1.2l0.8,0.6L35.2,36z M33.5,34.8
		l-0.8-0.6l0.9-1.2l0.8,0.6L33.5,34.8z M31.9,33.7l-0.8-0.6l0.9-1.2l0.8,0.6L31.9,33.7z M30.2,32.5L29.4,32l0.9-1.2l0.8,0.6
		L30.2,32.5z M28.6,31.4l-0.8-0.6l0.9-1.2l0.8,0.6L28.6,31.4z"/>
	<path class="st4" d="M25.8,25.1h-1.5v-1h1.5V25.1z M25.8,23.1h-1.5v-1h1.5V23.1z M25.8,21.1h-1.5v-1h1.5V21.1z M25.8,19.1h-1.5v-1
		h1.5V19.1z M25.8,17.1h-1.5v-1h1.5V17.1z"/>
</g>
</svg>
